svg/s/NP.svg

<svg width="16" height="12" viewBox="0 0 16 12" fill="none" xmlns="http://www.w3.org/2000/svg">
<g clip-path="url(#clip0_270_55107)">
<rect width="16" height="12" fill="white"/>
<rect width="16" height="12" fill="white"/>
<path d="M5.61589 6.32009L9.93248 11.5H0.5V0.842271L9.03917 5.5H6H4.93248L5.61589 6.32009Z" fill="#C51918" stroke="#4857A1"/>
<mask id="mask0_270_55107" style="mask-type:luminance" maskUnits="userSpaceOnUse" x="0" y="0" width="11" height="12">
<path d="M5.61589 6.32009L9.93248 11.5H0.5V0.842271L9.03917 5.5H6H4.93248L5.61589 6.32009Z" fill="white" stroke="white"/>
</mask>
<g mask="url(#mask0_270_55107)">
<path fill-rule="evenodd" clip-rule="evenodd" d="M2.91481 10.0051L2.30223 10.8002L2.27395 9.79689L1.31105 10.08L1.87788 9.25174L0.932453 8.91481L1.87788 8.57789L1.31105 7.74961L2.27395 8.03274L2.30223 7.02948L2.91481 7.82452L3.5274 7.02948L3.55568 8.03274L4.51858 7.74961L3.95175 8.57789L4.89718 8.91481L3.95175 9.25174L4.51858 10.08L3.55568 9.79689L3.5274 10.8002L2.91481 10.0051Z" fill="#F7FCFF"/>
<path fill-rule="evenodd" clip-rule="evenodd" d="M2.90002 4.0694L2.58011 4.48461L2.56534 3.96066L2.06247 4.10852L2.35849 3.67595L1.86475 3.5L2.35849 3.32405L2.06247 2.89148L2.56534 3.03934L2.58011 2.51539L2.90002 2.9306L3.21994 2.51539L3.23471 3.03934L3.73758 2.89148L3.44156 3.32405L3.9353 3.5L3.44156 3.67595L3.73758 4.10852L3.23471 3.96066L3.21994 4.48461L2.90002 4.0694Z" fill="#F7FCFF"/>
<path fill-rule="evenodd" clip-rule="evenodd" d="M2.83303 3.94704C3.94619 3.95149 4.53969 3.31999 4.53969 3.31999C4.6571 4.04057 3.75059 4.51999 2.84388 4.51999C1.93717 4.51999 1.3882 3.86648 1.04999 3.31999C1.04999 3.31999 1.71987 3.94259 2.83303 3.94704Z" fill="#F9FAFA"/>
</g>
</g>
<defs>
<clipPath id="clip0_270_55107">
<rect width="16" height="12" fill="white"/>
</clipPath>
</defs>
</svg>

<svg width="16" height="12" fill="none" xmlns="http://www.w3.org/2000/svg">
  <path fill="#fff" d="M0 0h16v12H0z"/>
  <path d="M5.616 6.32l4.316 5.18H.5V.842L9.04 5.5H4.931l.684.82z" fill="#C51918" stroke="#4857A1"/>
  <mask id="a" maskUnits="userSpaceOnUse" x="0" y="0" width="11" height="12">
    <path d="M5.616 6.32l4.316 5.18H.5V.842L9.04 5.5H4.931l.684.82z" fill="#fff" stroke="#fff"/>
  </mask>
  <g mask="url(#a)" fill-rule="evenodd" clip-rule="evenodd">
    <path d="M2.915 10.005l-.613.795-.028-1.003-.963.283.567-.828-.946-.337.946-.337-.567-.828.963.283.028-1.004.613.796.612-.796.029 1.004.963-.283-.567.828.945.337-.945.337.567.828-.963-.283-.029 1.003-.612-.795zM2.9 4.07l-.32.415-.015-.524-.503.148.296-.433-.493-.176.493-.176-.296-.433.503.148.015-.524.32.416.32-.416.015.524.503-.148-.296.433.493.176-.493.176.296.433-.503-.148-.015.524-.32-.416z" fill="#F7FCFF"/>
    <path d="M2.833 3.947c1.113.004 1.707-.627 1.707-.627.117.72-.79 1.2-1.696 1.2-.907 0-1.456-.654-1.794-1.2 0 0 .67.623 1.783.627z" fill="#F9FAFA"/>
  </g>
</svg>
